app/dist/common/images/smt-scharf-ag.svg

<svg fill="none" height="18" viewBox="0 0 18 18" width="18" xmlns="http://www.w3.org/2000/svg"><path d="m0 0h18v18h-18z" fill="#f0f3fa"/><path clip-rule="evenodd" d="m4 12.9999c.01593-4.91572 4.02318-8.9068 9-8.9999v1.99992c-3.86597.00003-6.99999 3.13399-6.99999 6.99998zm9 0v-2.99998c-1.6569.00001-3 1.34318-3 2.99998zm-3.97252 0c.23056-2.0858 1.88672-3.74194 3.97252-3.97251v-2.02747c-3.31367.00003-5.99999 2.68629-5.99999 5.99998z" fill="#5b8099" fill-rule="evenodd"/></svg>

<!-- by TradingView --><svg width="18" height="18" viewBox="0 0 18 18" fill="none" xmlns="http://www.w3.org/2000/svg">
<rect width="18" height="18" fill="#F0F3FA"/>
<path fill-rule="evenodd" clip-rule="evenodd" d="M4 12.9999C4.01593 8.08418 8.02318 4.0931 13 4V5.99992C9.13403 5.99995 6.00001 9.13391 6.00001 12.9999C6.00001 12.9999 6.00001 12.9999 6.00001 12.9999H4ZM13 12.9999V9.99992C11.3431 9.99993 10 11.3431 10 12.9999C10 12.9999 10 12.9999 10 12.9999H13ZM9.02748 12.9999C9.25804 10.9141 10.9142 9.25796 13 9.02739V6.99992C9.68633 6.99995 7.00001 9.68621 7.00001 12.9999C7.00001 12.9999 7.00001 12.9999 7.00001 12.9999H9.02748Z" fill="#5B8099"/>
</svg>
